X:377
T:Jessey the Flower of Dunblane. EHo.377
A:England; East Yorkshire
M:6/8
L:1/8
Q:3/8=80
B:Edward Holmes MS, c1846, Beverley, Yorkshire.
N:A song, "Jessie the Flower of Dunblane" was written by Robert Tannahill, 1774 - 1810.
C:
O:
Z:Village Music Project 2018, Jake Wade. Beverley, East Yorks
K:A
y(A/B/) | "key sig D in MS"c>dc (B<e) (c/B/) | A>GA (B<G) (A/F/) | E>FD CEA | A>Bc B2 (A/B/) |
c>dc (B<e) (c/B/) | A>GA (B<G) A/F/ | E>FD CEA | BFG A2 ||
A/B/ | cAB (c<f) (e/d/) | cAB c<A (G/A/) | BGA (B<e) B/A/ | G>AF E2 (E/D/) |
CAB (c<A)B | cec (d<B)c | d/c/d/e/f/d/ ecA | BFG A2G/F/ |
EFD C<E A/B/ | c<ec d<Bc | d/c/d/e/f/d/ e/a/e/c/A/c/ | BFG A2 |]

